exported-svg/thumbs-down.svg

<svg height="24" viewBox="0 0 24 24" width="24" xmlns="http://www.w3.org/2000/svg"><path d="m17.5075373 13.0003677-3.8680307 8.7030692c-.0802507.1805641-.2593115.2969308-.4569058.2969308-1.9329966 0-3.50000002-1.5670034-3.50000002-3.5v-3.5000028l-5.15433813-.0000292c-.73343963.0083058-1.43352481-.3058999-1.91482314-.859393s-.69524689-1.2904262-.58506261-2.016356l1.37987604-8.99918704c.18691771-1.23255661 1.25333663-2.13906115 2.49434784-2.12516161h11.28000002c.0038488 0 .0076875.00004349.0115156.00013l2.6496431.00007783c1.4250588-.02520248 2.6432803 1.02048121 2.8388413 2.49992183l-.0045122 7.06702139c-.1910488 1.4124192-1.4092703 2.4581029-2.8254878 2.4329786zm.1750635-.9999854 2.1788412.0000636c.9179204.0162336 1.7026112-.6573206 1.8211588-1.5000782l.0045122-6.9329786c-.1230598-.90977893-.9077506-1.58333319-1.8345122-1.56702139h-2.17zm-1-10.00027051h-10.78558718c-.74802014-.0082641-1.38791177.53567287-1.50018896 1.27603692l-1.37988575 8.99925109c-.06604201.4351085.06232712.8772684.35110612 1.2093642.288779.3320959.70883011.5206193 1.15455575.5156037h5.66000002c.2761424 0 .5.2238576.5.5v4c0 1.2736268.9524017 2.3248083 2.1838626 2.4802019l3.8161374-8.5863091z"/></svg>

<?xml version="1.0" encoding="UTF-8"?>
<svg width="24px" height="24px" viewBox="0 0 24 24" version="1.1" xmlns="http://www.w3.org/2000/svg" xmlns:xlink="http://www.w3.org/1999/xlink">
    <!-- Generator: Sketch 55.2 (78181) - https://sketchapp.com -->
    <title>thumbs-down</title>
    <desc>Created with Sketch.</desc>
    <g id="thumbs-down" stroke="none" stroke-width="1" fill="none" fill-rule="evenodd">
        <path d="M17.5075373,13.0003677 L13.6395066,21.7034369 C13.5592559,21.884001 13.3801951,22.0003677 13.1826008,22.0003677 C11.2496042,22.0003677 9.68260078,20.4333643 9.68260078,18.5003677 L9.68260078,15.0003649 L4.52826265,15.0003357 C3.79482302,15.0086415 3.09473784,14.6944358 2.61343951,14.1409427 C2.13214118,13.5874496 1.91819262,12.8505165 2.0283769,12.1245867 L3.40825294,3.12539966 C3.59517065,1.89284305 4.66158957,0.986338505 5.90260078,1.00023805 L17.1826008,1.00023805 C17.1864496,1.00023805 17.1902883,1.00028154 17.1941164,1.00036805 L19.8437595,1.00044588 C21.2688183,0.975243395 22.4870398,2.02092709 22.6826008,3.50036771 L22.6780886,10.5673891 C22.4870398,11.9798083 21.2688183,13.025492 19.8526008,13.0003677 L17.5075373,13.0003677 Z M17.6826008,12.0003823 L19.861442,12.0004459 C20.7793624,12.0166795 21.5640532,11.3431253 21.6826008,10.5003677 L21.687113,3.5673891 C21.5640532,2.65761017 20.7793624,1.98405591 19.8526008,2.00036771 L17.6826008,2.00036771 L17.6826008,12.0003823 Z M16.6826008,2.00011179 L5.89701362,2.00011179 C5.14899348,1.99184769 4.50910185,2.53578466 4.39682466,3.27614871 L3.01693891,12.2753998 C2.9508969,12.7105083 3.07926603,13.1526682 3.36804503,13.484764 C3.65682403,13.8168599 4.07687514,14.0053833 4.52260078,14.0003677 L10.1826008,14.0003677 C10.4587432,14.0003677 10.6826008,14.2242253 10.6826008,14.5003677 L10.6826008,18.5003677 C10.6826008,19.7739945 11.6350025,20.825176 12.8664634,20.9805696 L16.6826008,12.3942605 L16.6826008,2.00011179 Z" id="Shape" fill="#000000" fill-rule="nonzero"></path>
    </g>
</svg>
